svg/sport/playground_fill.svg

<?xml version="1.0" encoding="UTF-8"?>
<svg width="24px" height="24px" viewBox="0 0 24 24" version="1.1" xmlns="http://www.w3.org/2000/svg" xmlns:xlink="http://www.w3.org/1999/xlink">
    <title>playground_fill</title>
    <g id="Icon" stroke="none" stroke-width="1" fill="none" fill-rule="evenodd">
        <g id="Sport" transform="translate(-672.000000, -48.000000)" fill-rule="nonzero">
            <g id="playground_fill" transform="translate(672.000000, 48.000000)">
                <path d="M24,0 L24,24 L0,24 L0,0 L24,0 Z M12.5935,23.2578 L12.5819,23.2595 L12.5109,23.295 L12.4919,23.2987 L12.4767,23.295 L12.4057,23.2595 C12.3958,23.2564 12.387,23.259 12.3821,23.2649 L12.378,23.2758 L12.3609,23.7031 L12.3659,23.7235 L12.3769,23.7357 L12.4805,23.8097 L12.4953,23.8136 L12.5071,23.8097 L12.6107,23.7357 L12.6233,23.7197 L12.6267,23.7031 L12.6096,23.2758 C12.6076,23.2657 12.601,23.2593 12.5935,23.2578 Z M12.8584,23.1453 L12.8445,23.1473 L12.6598,23.2397 L12.6499,23.2499 L12.6472,23.2611 L12.6651,23.6906 L12.6699,23.7034 L12.6784,23.7105 L12.8793,23.8032 C12.8914,23.8069 12.9022,23.803 12.9078,23.7952 L12.9118,23.7812 L12.8777,23.1665 C12.8753,23.1546 12.8674,23.147 12.8584,23.1453 Z M12.143,23.1473 C12.1332,23.1424 12.1222,23.1453 12.1156,23.1526 L12.1099,23.1665 L12.0758,23.7812 C12.0751,23.7927 12.0828,23.8019 12.0926,23.8046 L12.1083,23.8032 L12.3092,23.7105 L12.3186,23.7024 L12.3225,23.6906 L12.3404,23.2611 L12.3372,23.2485 L12.3278,23.2397 L12.143,23.1473 Z" id="MingCute"></path>
                <path d="M11,5 L11,9.17071 C9.83481,9.58254 9,10.6938 9,12 C9,13.24089 9.75341602,14.3058828 10.8277624,14.7623468 L11,14.8293 L11,19 L4,19 C2.94563773,19 2.08183483,18.18415 2.00548573,17.1492661 L2,17 L2,16 L5,16 C6.05436227,16 6.91816517,15.18415 6.99451427,14.1492661 L7,14 L7,10 C7,8.94563773 6.18412267,8.08183483 5.14926241,8.00548573 L5,8 L2,8 L2,7 C2,5.94563773 2.81587733,5.08183483 3.85073759,5.00548573 L4,5 L11,5 Z M20,5 C21.1046,5 22,5.89543 22,7 L22,8 L19,8 C17.8954,8 17,8.89543 17,10 L17,14 C17,15.1046 17.8954,16 19,16 L22,16 L22,17 C22,18.1046 21.1046,19 20,19 L13,19 L13,14.8293 C14.1652,14.4175 15,13.3062 15,12 C15,10.6938 14.1652,9.58254 13,9.17071 L13,5 L20,5 Z M5,10 L5,14 L2,14 L2,10 L5,10 Z M22,10 L22,14 L19,14 L19,10 L22,10 Z M12,11 C12.5523,11 13,11.4477 13,12 C13,12.5523 12.5523,13 12,13 C11.4477,13 11,12.5523 11,12 C11,11.4477 11.4477,11 12,11 Z" id="形状" fill="#09244B"></path>
            </g>
        </g>
    </g>
</svg>

<svg xmlns="http://www.w3.org/2000/svg" width="24" height="24"><g fill="none" fill-rule="nonzero"><path d="M24 0v24H0V0h24ZM12.594 23.258l-.012.002-.071.035-.02.004-.014-.004-.071-.036c-.01-.003-.019 0-.024.006l-.004.01-.017.428.005.02.01.013.104.074.015.004.012-.004.104-.074.012-.016.004-.017-.017-.427c-.002-.01-.009-.017-.016-.018Zm.264-.113-.014.002-.184.093-.01.01-.003.011.018.43.005.012.008.008.201.092c.012.004.023 0 .029-.008l.004-.014-.034-.614c-.003-.012-.01-.02-.02-.022Zm-.715.002a.023.023 0 0 0-.027.006l-.006.014-.034.614c0 .012.007.02.017.024l.015-.002.201-.093.01-.008.003-.011.018-.43-.003-.012-.01-.01-.184-.092Z"/><path fill="#09244B" d="M11 5v4.17a3.001 3.001 0 0 0-.172 5.592l.172.067V19H4a2 2 0 0 1-1.995-1.85L2 17v-1h3a2 2 0 0 0 1.995-1.85L7 14v-4a2 2 0 0 0-1.85-1.995L5 8H2V7a2 2 0 0 1 1.85-1.995L4 5h7Zm9 0a2 2 0 0 1 2 2v1h-3a2 2 0 0 0-2 2v4a2 2 0 0 0 2 2h3v1a2 2 0 0 1-2 2h-7v-4.17a3.001 3.001 0 0 0 0-5.66V5h7ZM5 10v4H2v-4h3Zm17 0v4h-3v-4h3Zm-10 1a1 1 0 1 1 0 2 1 1 0 0 1 0-2Z"/></g></svg>
